src/topics/icons/celluloid.svg

<svg height="256" preserveAspectRatio="xMidYMid" viewBox="0 0 256 256" width="256" xmlns="http://www.w3.org/2000/svg"><path d="m157.335864 243.653424c7.962034-7.962034 12.348746-18.546983 12.348746-29.804475 0-.177898-.002169-.355796-.004339-.535864 11.472271.164881 22.254644-4.252204 30.342509-12.342238 7.962034-7.959864 12.346576-18.549152 12.346576-29.808813 0-.177898 0-.357966-.00217-.535865 11.415865.132339 22.256814-4.254372 30.342509-12.344406 7.962034-7.962034 12.346576-18.549153 12.346576-29.806644 0-11.259661-4.384542-21.84678-12.346576-29.8088139-8.085695-8.0878644-18.926644-12.4854237-30.342509-12.3444068.00217-.1778983.00217-.3557966.00217-.5336949 0-11.2618305-4.384542-21.8467797-12.344407-29.8088136-8.087864-8.0878644-18.904949-12.4919322-30.344678-12.3444067.00217-.1778984.004339-.3557967.004339-.533695 0-11.2618305-4.386712-21.8467796-12.348746-29.8088135-7.962033-7.96203392-18.546983-12.34657629-29.808813-12.34657629-11.257492 0-21.84461 4.38454237-29.8066442 12.34657629-7.9620339 7.9598644-12.3465763 18.546983-12.3465763 29.8088135 0 .1778983 0 .3557966.0021695.533695-11.4332203-.1475255-22.2546441 4.2565423-30.3425085 12.3444067-7.9620339 7.9620339-12.3465762 18.5469831-12.3465762 29.8088136 0 .1778983 0 .3557966.0021694.5336949-11.4418983-.1410169-22.254644 4.2543729-30.3446779 12.3444068-7.95986443 7.9620339-12.3444068 18.5491529-12.3444068 29.8088139s4.38454237 21.84461 12.3444068 29.804474c8.0878644 8.092204 18.9223051 12.478915 30.3446779 12.346576-.0021694.177899-.0021694.357967-.0021694.535865 0 11.259661 4.3845423 21.84461 12.3465762 29.806644 8.0878644 8.087864 18.8593899 12.450712 30.3425085 12.344407-.0021695.180068-.0021695.357966-.0021695.535864 0 11.259661 4.3845424 21.84461 12.3465763 29.804475 7.9598642 7.962034 18.5469832 12.346576 29.8066442 12.346576 11.264 0 21.851118-4.384542 29.808813-12.346576" fill="#0a0b09"/><g fill="#fff"><path d="m190.086508 191.032407c-5.308745 5.304407-12.363932 8.228881-19.872542 8.228881-7.504271 0-14.563797-2.924474-19.870373-8.228881-10.955932-10.958102-10.955932-28.784814 0-39.745085 5.306576-5.306576 12.366102-8.228881 19.870373-8.228881 7.50861 0 14.563797 2.922305 19.872542 8.228881 5.306577 5.310915 8.228882 12.366102 8.228882 19.874712 0 7.504271-2.922305 14.561627-8.228882 19.870373"/><path d="m127.527051 156.574373c-7.506441 0-14.563797-2.920136-19.870373-8.228881-5.306576-5.308746-8.2310509-12.363933-8.2310509-19.870373 0-7.508611 2.9244749-14.563797 8.2310509-19.872543 5.306576-5.308745 12.363932-8.228881 19.870373-8.228881 7.50861 0 14.563796 2.920136 19.872542 8.228881 5.308746 5.308746 8.228882 12.363932 8.228882 19.872543 0 7.50644-2.920136 14.561627-8.228882 19.870373-5.308746 5.308745-12.363932 8.228881-19.872542 8.228881"/><path d="m212.900881 100.373695c7.506441 0 14.563797 2.920136 19.870373 8.228881 5.308746 5.308746 8.233221 12.363932 8.233221 19.872543 0 7.50644-2.924475 14.561627-8.233221 19.870373-5.306576 5.308745-12.363932 8.228881-19.870373 8.228881-7.50644 0-14.563796-2.920136-19.870373-8.228881-5.308745-5.308746-8.23105-12.363933-8.23105-19.870373 0-7.508611 2.922305-14.563797 8.23105-19.872543 5.306577-5.308745 12.363933-8.228881 19.870373-8.228881"/><path d="m170.213966 57.6846102c7.50861 0 14.563797 2.9244745 19.872542 8.2310508 5.306577 5.3087458 8.228882 12.3661017 8.228882 19.8725424s-2.922305 14.5616276-8.228882 19.8703726c-5.308745 5.308746-12.363932 8.231051-19.872542 8.231051-7.504271 0-14.563797-2.922305-19.870373-8.231051-10.955932-10.9559319-10.955932-28.7848133 0-39.742915 5.306576-5.3065763 12.366102-8.2310508 19.870373-8.2310508"/><path d="m107.656678 23.2287458c5.306576-5.3065763 12.363932-8.2288814 19.870373-8.2288814 7.50861 0 14.563796 2.9223051 19.872542 8.2288814 5.308746 5.3109152 8.228882 12.3661017 8.228882 19.8725423 0 7.5064407-2.920136 14.5637966-8.228882 19.8703729-5.308746 5.3087458-12.363932 8.2332204-19.872542 8.2332204-7.506441 0-14.563797-2.9244746-19.870373-8.2332204-5.306576-5.3065763-8.2310509-12.3639322-8.2310509-19.8703729 0-7.5064406 2.9244749-14.5616271 8.2310509-19.8725423"/><path d="m64.9697627 65.915661c5.3087458-5.3065763 12.3639322-8.2310508 19.8703729-8.2310508s14.5637966 2.9244745 19.8747114 8.2310508c10.953763 10.9581017 10.953763 28.7869831 0 39.742915-5.3109148 5.308746-12.3682707 8.231051-19.8747114 8.231051s-14.5616271-2.922305-19.8703729-8.231051c-5.3065763-5.308745-8.2310508-12.3639319-8.2310508-19.8703726s2.9244745-14.5637966 8.2310508-19.8725424"/><path d="m42.1575593 156.574373c-7.5086101 0-14.5637966-2.920136-19.8747118-8.228881-5.3065763-5.308746-8.2288814-12.363933-8.2288814-19.870373 0-7.508611 2.9223051-14.563797 8.2288814-19.872543 5.3109152-5.308745 12.3661017-8.228881 19.8747118-8.228881 7.5042712 0 14.5616271 2.920136 19.8682034 8.228881 5.3087458 5.308746 8.2310509 12.363932 8.2310509 19.872543 0 7.50644-2.9223051 14.561627-8.2310509 19.870373-5.3065763 5.308745-12.3639322 8.228881-19.8682034 8.228881"/><path d="m84.8401356 199.261288c-7.5064407 0-14.5616271-2.924474-19.8703729-8.228881-5.3065763-5.308746-8.2310508-12.366102-8.2310508-19.870373 0-7.50861 2.9244745-14.563797 8.2310508-19.874712 5.3087458-5.306576 12.3639322-8.228881 19.8703729-8.228881s14.5637966 2.922305 19.8747114 8.228881c10.953763 10.960271 10.953763 28.786983 0 39.745085-5.3109148 5.304407-12.3682707 8.228881-19.8747114 8.228881"/><path d="m99.4256271 213.848949c0-7.506441 2.9244749-14.565966 8.2310509-19.872542 5.306576-5.308746 12.363932-8.231051 19.870373-8.231051 7.50861 0 14.563796 2.922305 19.872542 8.231051 5.308746 5.306576 8.228882 12.366101 8.228882 19.872542 0 7.504271-2.920136 14.559458-8.228882 19.870373-5.308746 5.306576-12.363932 8.226712-19.872542 8.226712-7.506441 0-14.563797-2.920136-19.870373-8.226712-5.306576-5.310915-8.2310509-12.366102-8.2310509-19.870373"/></g></svg>

<?xml version="1.0" encoding="UTF-8" standalone="no"?>
<svg width="256px" height="256px" viewBox="0 0 256 256" version="1.1" xmlns="http://www.w3.org/2000/svg" xmlns:xlink="http://www.w3.org/1999/xlink" preserveAspectRatio="xMidYMid">
	<g>
		<path d="M157.335864,243.653424 C165.297898,235.69139 169.68461,225.106441 169.68461,213.848949 C169.68461,213.671051 169.682441,213.493153 169.680271,213.313085 C181.152542,213.477966 191.934915,209.060881 200.02278,200.970847 C207.984814,193.010983 212.369356,182.421695 212.369356,171.162034 C212.369356,170.984136 212.369356,170.804068 212.367186,170.626169 C223.783051,170.758508 234.624,166.371797 242.709695,158.281763 C250.671729,150.319729 255.056271,139.73261 255.056271,128.475119 C255.056271,117.215458 250.671729,106.628339 242.709695,98.6663051 C234.624,90.5784407 223.783051,86.1808814 212.367186,86.3218983 C212.369356,86.144 212.369356,85.9661017 212.369356,85.7882034 C212.369356,74.5263729 207.984814,63.9414237 200.024949,55.9793898 C191.937085,47.8915254 181.12,43.4874576 169.680271,43.6349831 C169.682441,43.4570847 169.68461,43.2791864 169.68461,43.1012881 C169.68461,31.8394576 165.297898,21.2545085 157.335864,13.2924746 C149.373831,5.33044068 138.788881,0.945898305 127.527051,0.945898305 C116.269559,0.945898305 105.682441,5.33044068 97.7204068,13.2924746 C89.7583729,21.252339 85.3738305,31.8394576 85.3738305,43.1012881 C85.3738305,43.2791864 85.3738305,43.4570847 85.376,43.6349831 C73.9427797,43.4874576 63.1213559,47.8915254 55.0334915,55.9793898 C47.0714576,63.9414237 42.6869153,74.5263729 42.6869153,85.7882034 C42.6869153,85.9661017 42.6869153,86.144 42.6890847,86.3218983 C31.2471864,86.1808814 20.4344407,90.5762712 12.3444068,98.6663051 C4.38454237,106.628339 0,117.215458 0,128.475119 C0,139.73478 4.38454237,150.319729 12.3444068,158.279593 C20.4322712,166.371797 31.2667119,170.758508 42.6890847,170.626169 C42.6869153,170.804068 42.6869153,170.984136 42.6869153,171.162034 C42.6869153,182.421695 47.0714576,193.006644 55.0334915,200.968678 C63.1213559,209.056542 73.8928814,213.41939 85.376,213.313085 C85.3738305,213.493153 85.3738305,213.671051 85.3738305,213.848949 C85.3738305,225.10861 89.7583729,235.693559 97.7204068,243.653424 C105.680271,251.615458 116.26739,256 127.527051,256 C138.791051,256 149.378169,251.615458 157.335864,243.653424" fill="#0A0B09"></path>
		<path d="M190.086508,191.032407 C184.777763,196.336814 177.722576,199.261288 170.213966,199.261288 C162.709695,199.261288 155.650169,196.336814 150.343593,191.032407 C139.387661,180.074305 139.387661,162.247593 150.343593,151.287322 C155.650169,145.980746 162.709695,143.058441 170.213966,143.058441 C177.722576,143.058441 184.777763,145.980746 190.086508,151.287322 C195.393085,156.598237 198.31539,163.653424 198.31539,171.162034 C198.31539,178.666305 195.393085,185.723661 190.086508,191.032407" fill="#FFFFFF"></path>
		<path d="M127.527051,156.574373 C120.02061,156.574373 112.963254,153.654237 107.656678,148.345492 C102.350102,143.036746 99.4256271,135.981559 99.4256271,128.475119 C99.4256271,120.966508 102.350102,113.911322 107.656678,108.602576 C112.963254,103.293831 120.02061,100.373695 127.527051,100.373695 C135.035661,100.373695 142.090847,103.293831 147.399593,108.602576 C152.708339,113.911322 155.628475,120.966508 155.628475,128.475119 C155.628475,135.981559 152.708339,143.036746 147.399593,148.345492 C142.090847,153.654237 135.035661,156.574373 127.527051,156.574373" fill="#FFFFFF"></path>
		<path d="M212.900881,100.373695 C220.407322,100.373695 227.464678,103.293831 232.771254,108.602576 C238.08,113.911322 241.004475,120.966508 241.004475,128.475119 C241.004475,135.981559 238.08,143.036746 232.771254,148.345492 C227.464678,153.654237 220.407322,156.574373 212.900881,156.574373 C205.394441,156.574373 198.337085,153.654237 193.030508,148.345492 C187.721763,143.036746 184.799458,135.981559 184.799458,128.475119 C184.799458,120.966508 187.721763,113.911322 193.030508,108.602576 C198.337085,103.293831 205.394441,100.373695 212.900881,100.373695" fill="#FFFFFF"></path>
		<path d="M170.213966,57.6846102 C177.722576,57.6846102 184.777763,60.6090847 190.086508,65.915661 C195.393085,71.2244068 198.31539,78.2817627 198.31539,85.7882034 C198.31539,93.2946441 195.393085,100.349831 190.086508,105.658576 C184.777763,110.967322 177.722576,113.889627 170.213966,113.889627 C162.709695,113.889627 155.650169,110.967322 150.343593,105.658576 C139.387661,94.7026441 139.387661,76.8737627 150.343593,65.915661 C155.650169,60.6090847 162.709695,57.6846102 170.213966,57.6846102" fill="#FFFFFF"></path>
		<path d="M107.656678,23.2287458 C112.963254,17.9221695 120.02061,14.9998644 127.527051,14.9998644 C135.035661,14.9998644 142.090847,17.9221695 147.399593,23.2287458 C152.708339,28.539661 155.628475,35.5948475 155.628475,43.1012881 C155.628475,50.6077288 152.708339,57.6650847 147.399593,62.971661 C142.090847,68.2804068 135.035661,71.2048814 127.527051,71.2048814 C120.02061,71.2048814 112.963254,68.2804068 107.656678,62.971661 C102.350102,57.6650847 99.4256271,50.6077288 99.4256271,43.1012881 C99.4256271,35.5948475 102.350102,28.539661 107.656678,23.2287458" fill="#FFFFFF"></path>
		<path d="M64.9697627,65.915661 C70.2785085,60.6090847 77.3336949,57.6846102 84.8401356,57.6846102 C92.3465763,57.6846102 99.4039322,60.6090847 104.714847,65.915661 C115.66861,76.8737627 115.66861,94.7026441 104.714847,105.658576 C99.4039322,110.967322 92.3465763,113.889627 84.8401356,113.889627 C77.3336949,113.889627 70.2785085,110.967322 64.9697627,105.658576 C59.6631864,100.349831 56.7387119,93.2946441 56.7387119,85.7882034 C56.7387119,78.2817627 59.6631864,71.2244068 64.9697627,65.915661" fill="#FFFFFF"></path>
		<path d="M42.1575593,156.574373 C34.6489492,156.574373 27.5937627,153.654237 22.2828475,148.345492 C16.9762712,143.036746 14.0539661,135.981559 14.0539661,128.475119 C14.0539661,120.966508 16.9762712,113.911322 22.2828475,108.602576 C27.5937627,103.293831 34.6489492,100.373695 42.1575593,100.373695 C49.6618305,100.373695 56.7191864,103.293831 62.0257627,108.602576 C67.3345085,113.911322 70.2568136,120.966508 70.2568136,128.475119 C70.2568136,135.981559 67.3345085,143.036746 62.0257627,148.345492 C56.7191864,153.654237 49.6618305,156.574373 42.1575593,156.574373" fill="#FFFFFF"></path>
		<path d="M84.8401356,199.261288 C77.3336949,199.261288 70.2785085,196.336814 64.9697627,191.032407 C59.6631864,185.723661 56.7387119,178.666305 56.7387119,171.162034 C56.7387119,163.653424 59.6631864,156.598237 64.9697627,151.287322 C70.2785085,145.980746 77.3336949,143.058441 84.8401356,143.058441 C92.3465763,143.058441 99.4039322,145.980746 104.714847,151.287322 C115.66861,162.247593 115.66861,180.074305 104.714847,191.032407 C99.4039322,196.336814 92.3465763,199.261288 84.8401356,199.261288" fill="#FFFFFF"></path>
		<path d="M99.4256271,213.848949 C99.4256271,206.342508 102.350102,199.282983 107.656678,193.976407 C112.963254,188.667661 120.02061,185.745356 127.527051,185.745356 C135.035661,185.745356 142.090847,188.667661 147.399593,193.976407 C152.708339,199.282983 155.628475,206.342508 155.628475,213.848949 C155.628475,221.35322 152.708339,228.408407 147.399593,233.719322 C142.090847,239.025898 135.035661,241.946034 127.527051,241.946034 C120.02061,241.946034 112.963254,239.025898 107.656678,233.719322 C102.350102,228.408407 99.4256271,221.35322 99.4256271,213.848949" fill="#FFFFFF"></path>
	</g>
</svg>
